X:1
T:The High Road to Linton
C:Anonymous
M:C|
K:A
u(ce)e(f a2) a(ue | f2) f(e a2) a(ue | ce)e(f a2) a(e | fa)e(c B2) vA2 :|
|: u(ce)ve(=g fd)vd(f | ec)vc(e fB)vB(d | ce)ve(=g fd)vd(f | ec)va(c B2) vA2 :|
